static/logos/statuspage-wordmark-color.svg

<svg width="100" height="15" viewBox="0 0 100 15" fill="none" xmlns="http://www.w3.org/2000/svg">
<g clip-path="url(#clip0_1_930)">
<path d="M22.0445 11.2822C19.9271 11.2822 18.9441 10.8655 18.0938 10.4318V8.90151C19.1108 9.4356 20.6771 9.81818 22.1259 9.81818C23.7756 9.81818 24.3987 9.16856 24.3987 8.20075C24.3987 7.23295 23.7983 6.7178 21.715 6.2178C19.2528 5.61742 18.1487 4.76704 18.1487 2.9678C18.1487 1.26326 19.4479 0.00189209 21.9991 0.00189209C23.5824 0.00189209 24.5994 0.38068 25.3494 0.801135V2.30113C24.3068 1.72671 23.1305 1.43915 21.9403 1.4678C20.5066 1.4678 19.6562 1.9678 19.6562 2.9678C19.6562 3.86742 20.357 4.31818 22.2888 4.80113C24.6051 5.38447 25.9063 6.12689 25.9063 8.10038C25.8949 10 24.7604 11.2822 22.0445 11.2822Z" fill="#253858"/>
<path d="M30.955 9.71595C31.2581 9.70691 31.5594 9.66758 31.8546 9.59852V10.9849C31.5406 11.0746 31.2154 11.1193 30.8887 11.1175C29.1046 11.1175 28.2372 10.0682 28.2372 8.51709V4.11746H26.8906V2.79171H28.241V1.01709H29.6406V2.78413H31.8565V4.10989H29.6406V8.48299C29.6387 9.21595 30.0724 9.71595 30.955 9.71595Z" fill="#253858"/>
<path d="M39.0168 9.61554C38.4827 10.7159 37.4827 11.2822 36.2005 11.2822C33.9846 11.2822 32.8672 9.39963 32.8672 6.94887C32.8672 4.59849 34.0339 2.61554 36.3672 2.61554C37.5831 2.61554 38.5168 3.16478 39.0187 4.24812V2.7841H40.4524V11.1174H39.0168V9.61554ZM36.5831 9.94887C37.8672 9.94887 39.0168 9.13258 39.0168 7.28221V6.61554C39.0168 4.76516 37.9676 3.94887 36.7441 3.94887C35.1267 3.94887 34.2933 5.01516 34.2933 6.94887C34.2933 8.94887 35.0926 9.94887 36.5774 9.94887H36.5831Z" fill="#253858"/>
<path d="M45.9119 9.71595C46.215 9.70691 46.5163 9.66758 46.8116 9.59852V10.9849C46.4975 11.0746 46.1723 11.1193 45.8456 11.1175C44.0616 11.1175 43.1941 10.0682 43.1941 8.51709V4.11746H41.8438V2.79171H43.1941V1.01709H44.5938V2.78413H46.8097V4.10989H44.5938V8.48299C44.5938 9.21595 45.0275 9.71595 45.9119 9.71595Z" fill="#253858"/>
<path d="M48.4766 2.78406H49.9103V7.81625C49.9103 9.31625 50.5107 9.9829 51.8762 9.9829C53.2019 9.9829 54.1262 9.10035 54.1262 7.41663V2.78406H55.5599V11.1174H54.1262V9.74995C53.8709 10.2231 53.4902 10.6166 53.0256 10.8873C52.5612 11.1579 52.0311 11.2952 51.4936 11.2841C49.5769 11.2841 48.4766 9.9583 48.4766 7.66661V2.78406Z" fill="#253858"/>
<path d="M60.3393 11.2822C59.3377 11.3054 58.3447 11.094 57.4396 10.6648V9.14964C58.3518 9.65612 59.3722 9.93606 60.415 9.96593C61.5154 9.96593 62.0817 9.51517 62.0817 8.86555C62.0817 8.21593 61.5987 7.86555 60.0154 7.48298C58.165 7.03222 57.3828 6.31631 57.3828 4.94889C57.3828 3.49813 58.5002 2.61555 60.3999 2.61555C61.3237 2.60597 62.237 2.81288 63.0665 3.21972V4.70267C62.0665 4.20267 61.2502 3.9451 60.3677 3.9451C59.3184 3.9451 58.7502 4.31252 58.7502 4.96214C58.7502 5.54548 59.1499 5.90911 60.684 6.2879C62.5343 6.73866 63.468 7.42426 63.468 8.87123C63.4737 10.2273 62.5741 11.2822 60.3393 11.2822Z" fill="#253858"/>
<path d="M66.5587 9.6591V14.375H65.125V2.7841H66.5587V4.2841C67.0928 3.18372 68.0928 2.61743 69.375 2.61743C71.5909 2.61743 72.7083 4.50001 72.7083 6.95077C72.7083 9.30114 71.5417 11.2841 69.2083 11.2841C67.9924 11.2822 67.0587 10.733 66.5587 9.6591ZM68.9924 3.96023C67.7083 3.96023 66.5587 4.77652 66.5587 6.6269V7.29357C66.5587 9.14395 67.608 9.96023 68.8314 9.96023C70.4489 9.96023 71.2822 8.89395 71.2822 6.96023C71.2746 4.94887 70.4754 3.95076 68.9905 3.95076L68.9924 3.96023Z" fill="#253858"/>
<path d="M80.0246 9.61554C79.4905 10.7159 78.4905 11.2822 77.2083 11.2822C74.9924 11.2822 73.875 9.39963 73.875 6.94887C73.875 4.59849 75.0417 2.61554 77.375 2.61554C78.5909 2.61554 79.5246 3.16478 80.0265 4.24812V2.7841H81.4602V11.1174H80.0265L80.0246 9.61554ZM77.5909 9.94887C78.875 9.94887 80.0246 9.13258 80.0246 7.28221V6.61554C80.0246 4.76516 78.9754 3.94887 77.7519 3.94887C76.1345 3.94887 75.3011 5.01516 75.3011 6.94887C75.3087 8.94887 76.108 9.94887 77.5909 9.94887Z" fill="#253858"/>
<path d="M89.2405 9.61554C88.7064 10.7159 87.7064 11.2822 86.4242 11.2822C84.2235 11.2822 83.125 9.39963 83.125 6.94887C83.125 4.59849 84.2746 2.61554 86.5909 2.61554C87.8068 2.61554 88.7405 3.16478 89.2424 4.24812V2.7841H90.642V10.3599C90.642 12.8106 89.4924 14.4602 86.5095 14.4602C85.5015 14.4914 84.4962 14.3406 83.5417 14.0152V12.6155C84.4752 12.9366 85.4542 13.1054 86.4413 13.1155C88.5246 13.1155 89.2405 11.9981 89.2405 10.4489V9.61554ZM86.8068 9.94887C88.0909 9.94887 89.2405 9.13258 89.2405 7.28221V6.61554C89.2405 4.76516 88.1913 3.94887 86.9678 3.94887C85.3504 3.94887 84.517 5.01516 84.517 6.94887C84.5246 8.94887 85.3239 9.94887 86.8087 9.94887H86.8068Z" fill="#253858"/>
<path d="M96.7955 11.2822C93.678 11.2822 92.3125 9.48297 92.3125 6.92615C92.3125 4.40911 93.7121 2.60986 96.2462 2.60986C98.8125 2.60986 99.8447 4.39395 99.8447 6.92615V7.57577H93.7538C93.9545 8.99244 94.8712 9.90911 96.8371 9.90911C97.7036 9.91286 98.5638 9.76412 99.3788 9.46971V10.7955C98.6951 11.1496 97.6439 11.2822 96.7955 11.2822ZM93.7462 6.35797H98.3939C98.3106 4.80873 97.6098 3.92426 96.178 3.92426C94.661 3.91668 93.8958 4.89964 93.7538 6.35039L93.7462 6.35797Z" fill="#253858"/>
<path d="M7.06652 11.1136C8.89387 11.1136 10.3752 9.63228 10.3752 7.80493C10.3752 5.97758 8.89387 4.49622 7.06652 4.49622C5.23918 4.49622 3.75781 5.97758 3.75781 7.80493C3.75781 9.63228 5.23918 11.1136 7.06652 11.1136Z" fill="url(#paint0_linear_1_930)"/>
<path d="M0.0892083 3.97727L1.86572 6.08144C1.89823 6.11966 1.93801 6.15106 1.98276 6.17377C2.0275 6.19649 2.0763 6.21011 2.12634 6.2138C2.1764 6.2175 2.22666 6.21123 2.27426 6.19534C2.32187 6.17943 2.36583 6.15424 2.40359 6.12121C5.28049 3.54166 8.84299 3.54166 11.7275 6.12121C11.7652 6.15424 11.8092 6.17943 11.8568 6.19534C11.9044 6.21123 11.9547 6.2175 12.0047 6.2138C12.0548 6.21011 12.1036 6.19649 12.1483 6.17377C12.1931 6.15106 12.2328 6.11966 12.2653 6.08144L14.0437 3.97727C14.1083 3.90079 14.1399 3.80191 14.1317 3.70219C14.1235 3.60248 14.0763 3.51005 14.0002 3.44507C9.82405 -0.208335 4.307 -0.208335 0.132769 3.44507C0.0566997 3.51005 0.00942465 3.60248 0.00126342 3.70219C-0.00689781 3.80191 0.0247175 3.90079 0.0892083 3.97727Z" fill="#2684FF"/>
</g>
<defs>
<linearGradient id="paint0_linear_1_930" x1="7.06652" y1="9.97538" x2="7.06652" y2="4.11364" gradientUnits="userSpaceOnUse">
<stop stop-color="#2684FF"/>
<stop offset="0.82" stop-color="#0052CC"/>
</linearGradient>
<clipPath id="clip0_1_930">
<rect width="100" height="14.5833" fill="white"/>
</clipPath>
</defs>
</svg>

<svg xmlns="http://www.w3.org/2000/svg" width="426.667" height="64" fill="none" viewBox="0 0 100 15"><g clip-path="url(#a)"><path fill="#253858" d="M22.044 11.282c-2.117 0-3.1-.416-3.95-.85v-1.53c1.017.534 2.583.916 4.032.916 1.65 0 2.273-.65 2.273-1.617 0-.968-.6-1.483-2.684-1.983-2.462-.6-3.566-1.451-3.566-3.25 0-1.705 1.299-2.966 3.85-2.966 1.583 0 2.6.379 3.35.8v1.5a6.729 6.729 0 0 0-3.409-.834c-1.433 0-2.284.5-2.284 1.5 0 .9.701 1.35 2.633 1.833 2.316.583 3.617 1.326 3.617 3.3-.011 1.899-1.146 3.181-3.861 3.181ZM30.955 9.716c.303-.01.604-.048.9-.117v1.386c-.314.09-.64.134-.966.133-1.784 0-2.652-1.05-2.652-2.6v-4.4h-1.346V2.791h1.35V1.017h1.4v1.767h2.216V4.11H29.64v4.373c-.002.733.431 1.233 1.314 1.233ZM39.017 9.616c-.534 1.1-1.534 1.666-2.817 1.666-2.215 0-3.333-1.882-3.333-4.333 0-2.35 1.167-4.333 3.5-4.333 1.216 0 2.15.549 2.652 1.632V2.784h1.433v8.333h-1.435V9.616Zm-2.434.333c1.284 0 2.434-.816 2.434-2.667v-.666c0-1.85-1.05-2.667-2.273-2.667-1.617 0-2.45 1.066-2.45 3 0 2 .799 3 2.283 3h.006ZM45.912 9.716c.303-.01.604-.048.9-.117v1.386c-.314.09-.64.134-.966.133-1.784 0-2.652-1.05-2.652-2.6v-4.4h-1.35V2.791h1.35V1.017h1.4v1.767h2.216V4.11h-2.216v4.373c0 .733.434 1.233 1.318 1.233ZM48.477 2.784h1.433v5.032c0 1.5.6 2.167 1.966 2.167 1.326 0 2.25-.883 2.25-2.566V2.784h1.434v8.333h-1.434V9.75a2.922 2.922 0 0 1-2.632 1.534c-1.917 0-3.017-1.326-3.017-3.617V2.784ZM60.34 11.282a6.42 6.42 0 0 1-2.9-.617V9.15a6.514 6.514 0 0 0 2.975.816c1.1 0 1.667-.45 1.667-1.1 0-.65-.483-1-2.067-1.383-1.85-.45-2.632-1.167-2.632-2.534 0-1.45 1.117-2.333 3.017-2.333a5.916 5.916 0 0 1 2.666.604v1.483c-1-.5-1.816-.758-2.698-.758-1.05 0-1.618.368-1.618 1.017 0 .583.4.947 1.934 1.326 1.85.45 2.784 1.136 2.784 2.583.006 1.356-.894 2.411-3.129 2.411ZM66.559 9.66v4.715h-1.434V2.785h1.434v1.5c.534-1.101 1.534-1.668 2.816-1.668 2.216 0 3.333 1.883 3.333 4.334 0 2.35-1.166 4.333-3.5 4.333-1.216-.002-2.15-.551-2.65-1.625Zm2.433-5.7c-1.284 0-2.433.817-2.433 2.667v.667c0 1.85 1.049 2.666 2.272 2.666 1.618 0 2.451-1.066 2.451-3-.007-2.011-.807-3.01-2.291-3.01l.001.01ZM80.025 9.616c-.535 1.1-1.535 1.666-2.817 1.666-2.216 0-3.333-1.882-3.333-4.333 0-2.35 1.167-4.333 3.5-4.333 1.216 0 2.15.549 2.651 1.632V2.784h1.434v8.333h-1.433l-.002-1.501Zm-2.434.333c1.284 0 2.434-.816 2.434-2.667v-.666c0-1.85-1.05-2.667-2.273-2.667-1.617 0-2.45 1.066-2.45 3 .007 2 .806 3 2.289 3ZM89.24 9.616c-.534 1.1-1.534 1.666-2.816 1.666-2.2 0-3.299-1.882-3.299-4.333 0-2.35 1.15-4.333 3.466-4.333 1.216 0 2.15.549 2.651 1.632V2.784h1.4v7.576c0 2.45-1.15 4.1-4.132 4.1a8.393 8.393 0 0 1-2.968-.445v-1.4c.933.322 1.912.49 2.9.5 2.083 0 2.799-1.117 2.799-2.666v-.833Zm-2.433.333c1.284 0 2.433-.816 2.433-2.667v-.666c0-1.85-1.049-2.667-2.272-2.667-1.618 0-2.451 1.066-2.451 3 .008 2 .807 3 2.292 3h-.002ZM96.796 11.282c-3.118 0-4.484-1.799-4.484-4.356 0-2.517 1.4-4.316 3.934-4.316 2.567 0 3.599 1.784 3.599 4.316v.65h-6.091c.2 1.416 1.117 2.333 3.083 2.333a7.386 7.386 0 0 0 2.542-.44v1.327c-.684.354-1.735.486-2.584.486Zm-3.05-4.924h4.648c-.083-1.55-.784-2.434-2.216-2.434-1.517-.007-2.282.976-2.424 2.426l-.008.008Z"/><path fill="url(#b)" d="M7.067 11.114a3.309 3.309 0 1 0 0-6.618 3.309 3.309 0 0 0 0 6.618Z"/><path fill="#2684FF" d="m.09 3.977 1.776 2.104a.379.379 0 0 0 .538.04c2.876-2.58 6.439-2.58 9.323 0a.378.378 0 0 0 .538-.04l1.779-2.104A.378.378 0 0 0 14 3.445C9.824-.208 4.307-.208.133 3.445a.379.379 0 0 0-.044.532Z"/></g><defs><linearGradient id="b" x1="7.067" x2="7.067" y1="9.975" y2="4.114" gradientUnits="userSpaceOnUse"><stop stop-color="#2684FF"/><stop offset=".82" stop-color="#0052CC"/></linearGradient><clipPath id="a"><path fill="#fff" d="M0 0h100v14.583H0z"/></clipPath></defs></svg>
